img/part6/8/步驟3_技術轉移_icon.svg

<svg width="40" height="32" viewBox="0 0 40 32" fill="none" xmlns="http://www.w3.org/2000/svg"><path d="M14.453 31.921C13.1378 31.7262 11.876 31.273 10.743 30.5884C9.72622 29.9489 2.04763 22.5582 1.67293 21.8651C1.24194 21.0735 1.99309 19.632 3.06616 19.1913L3.56927 18.9839L2.02124 17.4352C1.16982 16.5796 0.362379 15.6705 0.233963 15.4181C-0.0686075 14.8426 -0.0774032 13.6085 0.205817 13.0589C0.325437 12.8342 0.608657 12.4919 0.828549 12.3018C1.205 11.9959 1.24018 11.887 1.205 11.1127C1.15926 10.4282 1.22259 10.1586 1.52516 9.64525C1.96495 8.90722 2.87266 8.41116 3.76102 8.40252C4.25533 8.40252 4.38375 8.3403 4.59485 7.97906C5.14545 7.03362 6.71987 6.69139 7.92136 7.26868L8.57224 7.57461L8.8924 7.26868C9.33218 6.87287 10.2117 6.52201 10.7887 6.52201C11.9427 6.52201 13.5734 7.82696 13.5734 8.74474C13.5734 9.84229 12.5567 10.0324 11.5487 9.12327C10.8802 8.51141 10.5407 8.44746 10.2663 8.87956C10.1291 9.08697 10.458 9.47413 12.4282 11.4272C14.3985 13.3717 14.7556 13.7865 14.7556 14.1547C14.74 14.4369 14.6177 14.7032 14.4127 14.9014C14.2077 15.0996 13.9347 15.2155 13.6473 15.2263C13.2902 15.2263 12.7044 14.7216 10.0006 12.0754C7.24233 9.37389 6.73922 8.94178 6.51933 9.07833C5.92299 9.44821 6.12529 9.71784 9.34977 12.8947C11.1001 14.6231 12.5391 16.1527 12.5391 16.2979C12.5391 16.5952 12.2646 17.1448 12.036 17.2883C11.8484 17.3692 11.6443 17.4065 11.4396 17.3972C11.0632 17.4058 10.4862 16.8925 7.41825 13.8868C4.33977 10.8793 3.78916 10.3937 3.56927 10.5285C2.96413 10.907 3.16643 11.168 6.6759 14.6334C8.59159 16.5157 10.1942 18.1992 10.2399 18.3789C10.3402 18.7039 10.1203 19.2708 9.82825 19.4678C9.63448 19.5488 9.42468 19.586 9.21432 19.5767C8.83786 19.5767 8.3629 19.1723 5.82448 16.6782C3.37753 14.2739 2.80933 13.7796 2.49796 13.8073C1.6184 13.9058 1.92976 14.2929 6.4736 18.7678C10.414 22.6481 10.9172 23.1977 10.9172 23.6022C10.9211 23.7507 10.8871 23.8978 10.8183 24.03C10.7495 24.1623 10.648 24.2755 10.5231 24.3592C9.8177 24.9089 9.54327 24.7827 7.7648 23.0906C6.85708 22.235 5.92299 21.4071 5.67495 21.2533C5.22637 20.9836 4.08997 20.8661 3.87888 21.0821C3.805 21.1444 5.48145 22.8832 7.59944 24.9434C11.1265 28.3726 11.5293 28.7252 12.5655 29.2109C13.52 29.6779 14.5712 29.9224 15.6375 29.9254C16.7038 29.9284 17.7564 29.6898 18.7136 29.2282C21.6725 27.842 23.3137 24.475 22.5063 21.4226C22.1035 19.9016 21.5986 19.1723 19.565 17.1103C17.2201 14.751 16.6783 14.1028 16.1013 12.969C15.4592 11.7003 15.1848 10.4662 15.1848 8.92623C15.1848 7.26004 15.359 6.50472 16.1101 4.94742C16.8243 3.46272 18.3178 1.90542 19.7937 1.10344C22.6892 -0.481517 26.5013 -0.346702 29.2666 1.42838C29.8172 1.77925 31.8051 3.61655 34.2784 6.05534C37.9532 9.67463 38.3736 10.143 38.3736 10.5561C38.3736 11.5379 37.5574 12.6268 36.6515 12.8515C36.3119 12.9413 36.377 13.0312 37.9163 14.5712C38.8134 15.4631 39.6473 16.4258 39.7757 16.7231C40.2067 17.7411 40.0132 18.7298 39.2251 19.5404C38.8222 19.9552 38.7677 20.0987 38.7571 20.9266C38.7483 21.656 38.6657 21.9619 38.3719 22.3767C38.1399 22.7142 37.8292 22.9923 37.4657 23.188C37.1022 23.3838 36.6964 23.4914 36.282 23.5019C35.7138 23.5019 35.6048 23.5555 35.3198 23.979C34.6777 24.9521 33.0101 25.2926 31.93 24.6634L31.3899 24.3488L31.0047 24.7187C30.1532 25.5207 28.7776 25.6279 27.7344 24.9711C26.8918 24.4491 26.2691 23.7197 26.2691 23.2599C26.2691 22.8555 26.8654 22.1883 27.2313 22.1883C27.5796 22.1883 28.0476 22.458 28.5788 22.9454C29.1101 23.4397 29.5692 23.4397 29.6413 22.9367C29.6783 22.6671 29.2385 22.1538 27.46 20.3977C25.5901 18.5431 25.233 18.1196 25.233 17.7601C25.2288 17.5594 25.2665 17.36 25.3438 17.1742C25.5461 16.8769 26.1143 16.6695 26.4608 16.7594C26.6438 16.8043 28.1918 18.2095 29.8876 19.874C31.5922 21.5488 33.0857 22.916 33.2229 22.916C33.5994 22.916 33.8456 22.5461 33.6715 22.2315C33.5888 22.0881 32.1498 20.6379 30.4822 18.9994C27.8716 16.4431 27.4495 15.9661 27.4495 15.5875C27.4409 15.3837 27.4788 15.1806 27.5603 14.993C27.7168 14.7683 28.2657 14.4986 28.5771 14.4986C28.7143 14.4986 30.4365 16.0732 32.4067 18.0004C36.0164 21.5298 36.282 21.7268 36.6585 21.1426C36.7957 20.9266 36.3014 20.377 33.2405 17.3609C30.0794 14.2463 29.6589 13.7779 29.6589 13.3734C29.6589 13.0952 29.7873 12.8065 29.9896 12.6268C30.6581 12.0063 30.8604 12.1324 34.113 15.3093C37.1915 18.3253 37.4659 18.5224 37.8424 17.9468C37.9796 17.7308 37.3569 17.0653 33.536 13.3008C29.3757 9.19586 29.0749 8.86228 29.0749 8.38524C29.0749 7.66449 29.4971 7.32226 30.3116 7.37757C30.4576 7.38621 31.3371 8.1156 32.2448 8.98845C33.1613 9.8613 34.15 10.6806 34.4438 10.8067C35.0207 11.0401 35.6892 11.0764 35.9742 10.8966C36.2486 10.7255 28.6439 3.37111 27.6553 2.85777C26.8076 2.40825 25.8753 2.13393 24.9157 2.0517C23.956 1.96947 22.9895 2.08107 22.0754 2.37963C21.1613 2.6782 20.3191 3.1574 19.6006 3.78775C18.882 4.4181 18.3024 5.18627 17.8974 6.04497C17.4207 7.04399 17.3573 7.34128 17.2922 8.62894C17.2377 9.84402 17.2834 10.2225 17.5491 10.9969C18.0258 12.3744 18.4374 12.9413 20.573 15.0846C22.8828 17.4075 23.3225 17.9382 23.9083 19.1809C25.5584 22.6377 24.8618 26.6355 22.1404 29.299C20.0699 31.342 17.2483 32.2961 14.453 31.9193V31.921Z" fill="#F1F1F1"></path></svg>

<svg width="40" height="32" fill="none" xmlns="http://www.w3.org/2000/svg"><path d="M14.453 31.921a10.01 10.01 0 0 1-3.71-1.333c-1.017-.64-8.695-8.03-9.07-8.723-.431-.791.32-2.233 1.393-2.674l.503-.207-1.548-1.549C1.17 16.58.362 15.671.234 15.418c-.303-.575-.311-1.81-.028-2.36.12-.224.403-.566.623-.756.376-.306.411-.415.376-1.19-.046-.684.018-.953.32-1.467.44-.738 1.348-1.234 2.236-1.242.494 0 .623-.063.834-.424.55-.945 2.125-1.288 3.326-.71l.651.306.32-.306c.44-.396 1.32-.747 1.897-.747 1.154 0 2.784 1.305 2.784 2.223 0 1.097-1.016 1.287-2.024.378-.669-.612-1.008-.676-1.283-.243-.137.207.192.594 2.162 2.547 1.97 1.945 2.328 2.36 2.328 2.728a1.125 1.125 0 0 1-.343.746 1.164 1.164 0 0 1-.766.325c-.357 0-.943-.504-3.646-3.15-2.759-2.702-3.262-3.134-3.482-2.998-.596.37-.394.64 2.83 3.817 1.751 1.728 3.19 3.258 3.19 3.403 0 .297-.274.847-.503.99-.188.081-.392.119-.596.11-.377.008-.954-.506-4.022-3.511-3.078-3.008-3.629-3.493-3.849-3.359-.605.379-.403.64 3.107 4.105 1.916 1.883 3.518 3.566 3.564 3.746.1.325-.12.892-.412 1.089a1.429 1.429 0 0 1-.614.109c-.376 0-.851-.405-3.39-2.899-2.446-2.404-3.015-2.898-3.326-2.87-.88.098-.568.485 3.976 4.96 3.94 3.88 4.443 4.43 4.443 4.834a.877.877 0 0 1-.394.757c-.705.55-.98.424-2.758-1.268-.908-.856-1.842-1.684-2.09-1.838-.449-.27-1.585-.387-1.796-.17-.074.061 1.602 1.8 3.72 3.86 3.527 3.43 3.93 3.782 4.966 4.268a7.037 7.037 0 0 0 6.149.017c2.959-1.386 4.6-4.753 3.792-7.805-.402-1.521-.907-2.25-2.941-4.313-2.345-2.359-2.887-3.007-3.464-4.141-.642-1.269-.916-2.503-.916-4.043 0-1.666.174-2.421.925-3.979.714-1.484 2.208-3.042 3.684-3.844 2.895-1.585 6.707-1.45 9.473.325.55.351 2.538 2.189 5.011 4.627 3.675 3.62 4.096 4.088 4.096 4.501 0 .982-.817 2.07-1.723 2.296-.34.09-.274.18 1.265 1.72.897.891 1.731 1.854 1.86 2.151.43 1.018.237 2.007-.55 2.817-.404.415-.458.559-.469 1.387-.009.729-.091 1.035-.385 1.45a2.587 2.587 0 0 1-.906.811c-.364.196-.77.303-1.184.314-.568 0-.677.053-.962.477-.642.973-2.31 1.314-3.39.684l-.54-.314-.385.37c-.852.802-2.227.909-3.27.252-.843-.522-1.466-1.251-1.466-1.711 0-.405.596-1.072.962-1.072.349 0 .817.27 1.348.757.531.495.99.495 1.062-.008.037-.27-.402-.783-2.181-2.54-1.87-1.854-2.227-2.277-2.227-2.637-.004-.2.034-.4.11-.586.203-.297.771-.505 1.118-.415.183.045 1.73 1.45 3.427 3.115 1.704 1.675 3.198 3.042 3.335 3.042.376 0 .623-.37.449-.684-.083-.144-1.522-1.594-3.19-3.233-2.61-2.556-3.032-3.033-3.032-3.411-.01-.204.029-.407.11-.595.157-.225.706-.494 1.017-.494.137 0 1.86 1.574 3.83 3.501 3.61 3.53 3.875 3.727 4.252 3.143.137-.216-.358-.766-3.419-3.782-3.16-3.115-3.581-3.583-3.581-3.988 0-.278.128-.566.33-.746.67-.62.871-.495 4.124 2.682 3.078 3.016 3.353 3.213 3.73 2.638.137-.216-.486-.882-4.307-4.646-4.16-4.105-4.461-4.439-4.461-4.916 0-.72.422-1.063 1.237-1.007.146.008 1.025.738 1.933 1.61.916.873 1.905 1.693 2.199 1.819.577.233 1.245.27 1.53.09.275-.171-7.33-7.526-8.319-8.04a7.177 7.177 0 0 0-5.58-.478 7.09 7.09 0 0 0-2.474 1.409 6.944 6.944 0 0 0-1.704 2.257c-.476.999-.54 1.296-.605 2.584-.054 1.215-.009 1.594.257 2.368.477 1.377.888 1.944 3.024 4.088 2.31 2.322 2.75 2.853 3.335 4.096 1.65 3.457.954 7.454-1.768 10.118-2.07 2.043-4.892 2.997-7.687 2.62v.002Z" fill="#F1F1F1"/></svg>
